packages/astro-frontend/public/img/pagopa-footer-logo.svg

<svg width="164" height="46" viewBox="0 0 164 46" fill="none" xmlns="http://www.w3.org/2000/svg">
<g clip-path="url(#clip0_3862_5123)">
<path opacity="0.4" d="M164 3.23926V34.9857H158.835L158.835 30.8463C156.024 33.4178 152.285 34.9857 148.182 34.9857C142.644 34.9857 137.771 32.1307 134.945 27.8076C136.579 25.3101 137.528 22.3226 137.528 19.1125C137.528 15.9024 136.579 12.9149 134.946 10.4174C137.771 6.0943 142.644 3.23926 148.182 3.23926C152.285 3.23926 156.024 4.80722 158.835 7.37866L158.835 3.23926H164ZM148.182 8.42236C142.298 8.42236 137.528 13.2085 137.528 19.1125C137.528 25.0165 142.298 29.8026 148.182 29.8026C154.065 29.8026 158.835 25.0165 158.835 19.1125C158.835 13.2085 154.065 8.42236 148.182 8.42236Z" fill="white"/>
<path opacity="0.4" d="M5.16529 3.23926L5.16524 7.37866C7.97641 4.80722 11.7151 3.23926 15.8187 3.23926C21.3561 3.23926 26.229 6.0943 29.0551 10.4174C27.4217 12.9149 26.4721 15.9024 26.4721 19.1125C26.4721 22.3226 27.4217 25.3101 29.0544 27.8076C26.229 32.1307 21.3561 34.9857 15.8187 34.9857C11.7151 34.9857 7.97641 33.4178 5.16524 30.8463L5.16529 44.0562H0V3.23926H5.16529ZM15.8187 8.42236C9.93499 8.42236 5.16529 13.2085 5.16529 19.1125C5.16529 25.0165 9.93499 29.8026 15.8187 29.8026C21.7024 29.8026 26.4721 25.0165 26.4721 19.1125C26.4721 13.2085 21.7024 8.42236 15.8187 8.42236Z" fill="white"/>
<path opacity="0.7" d="M58.1099 3.23926V7.39361C54.9362 10.3025 52.9446 14.4931 52.9446 19.1513C52.9446 23.8095 54.9362 28 58.1099 30.9089V34.9857H52.9446L52.9447 30.8463C50.1335 33.4178 46.3949 34.9857 42.2913 34.9857C33.5549 34.9857 26.4727 27.879 26.4727 19.1125C26.4727 10.3459 33.5549 3.23926 42.2913 3.23926C46.3949 3.23926 50.1335 4.80722 52.9447 7.37866L52.9446 3.23926H58.1099ZM42.2913 8.42236C36.4076 8.42236 31.6379 13.2085 31.6379 19.1125C31.6379 25.0165 36.4076 29.8026 42.2913 29.8026C48.1749 29.8026 52.9446 25.0165 52.9446 19.1125C52.9446 13.2085 48.1749 8.42236 42.2913 8.42236Z" fill="white"/>
<path opacity="0.7" d="M111.055 3.23926L111.056 7.37808C113.867 4.80698 117.605 3.23926 121.709 3.23926C130.445 3.23926 137.527 10.3459 137.527 19.1125C137.527 27.879 130.445 34.9857 121.709 34.9857C117.605 34.9857 113.867 33.418 111.056 30.8469L111.055 44.0562H105.89V30.8464C109.063 27.9433 111.055 23.7613 111.055 19.1125C111.055 14.4637 109.063 10.2817 105.89 7.37864V3.23926H111.055ZM121.709 8.42236C115.825 8.42236 111.055 13.2085 111.055 19.1125C111.055 25.0165 115.825 29.8026 121.709 29.8026C127.592 29.8026 132.362 25.0165 132.362 19.1125C132.362 13.2085 127.592 8.42236 121.709 8.42236Z" fill="white"/>
<path d="M84.5831 0V7.37814L84.8006 7.18356C87.5857 4.72823 91.2379 3.23944 95.2367 3.23944C103.973 3.23944 111.056 10.3461 111.056 19.1127C111.056 27.8792 103.973 34.9859 95.2367 34.9859C91.133 34.9859 87.3943 33.418 84.5831 30.8465L84.5831 35.0569C84.5831 39.0996 82.9716 42.8994 80.1436 45.7901L79.9345 46L76.3184 42.2914C78.2399 40.3972 79.345 37.9389 79.4143 35.3194L79.4178 35.0569L79.4178 30.9091C76.6066 33.4857 72.8679 35.0569 68.7642 35.0569C60.0277 35.0569 52.9453 27.9358 52.9453 19.1514C52.9453 10.3671 60.0277 3.24601 68.7642 3.24601C72.8679 3.24601 76.6066 4.81715 79.4178 7.39381L79.4178 0H84.5831ZM68.7642 8.43962C62.8804 8.43962 58.1107 13.2355 58.1107 19.1514C58.1107 25.0674 62.8804 29.8633 68.7642 29.8633C74.648 29.8633 79.4178 25.0674 79.4178 19.1514C79.4178 13.2355 74.648 8.43962 68.7642 8.43962ZM95.2367 8.42254C89.3529 8.42254 84.5831 13.2087 84.5831 19.1127C84.5831 25.0167 89.3529 29.8028 95.2367 29.8028C101.12 29.8028 105.89 25.0167 105.89 19.1127C105.89 13.2087 101.12 8.42254 95.2367 8.42254Z" fill="white"/>
</g>
<defs>
<clipPath id="clip0_3862_5123">
<rect width="164" height="46" fill="white"/>
</clipPath>
</defs>
</svg>

<svg xmlns="http://www.w3.org/2000/svg" width="164" height="46" fill="none" viewBox="0 0 164 46"><g fill="#fff" clip-path="url(#a)"><path d="M164 3.24v31.746h-5.165v-4.14a15.73 15.73 0 0 1-10.653 4.14c-5.538 0-10.411-2.855-13.237-7.178a15.83 15.83 0 0 0 2.583-8.695c0-3.21-.949-6.198-2.582-8.696 2.825-4.323 7.698-7.178 13.236-7.178 4.103 0 7.842 1.568 10.653 4.14v-4.14zm-15.818 5.182c-5.884 0-10.654 4.787-10.654 10.69 0 5.905 4.77 10.69 10.654 10.69 5.883 0 10.653-4.785 10.653-10.69 0-5.903-4.77-10.69-10.653-10.69M5.165 3.24v4.139a15.73 15.73 0 0 1 10.654-4.14c5.537 0 10.41 2.855 13.236 7.178a15.83 15.83 0 0 0-2.583 8.696c0 3.21.95 6.197 2.582 8.695-2.825 4.323-7.698 7.178-13.235 7.178a15.73 15.73 0 0 1-10.654-4.14v13.21H0V3.24zM15.82 8.421c-5.884 0-10.654 4.787-10.654 10.69 0 5.905 4.77 10.69 10.654 10.69 5.883 0 10.653-4.785 10.653-10.69 0-5.903-4.77-10.69-10.653-10.69" opacity=".4"/><path d="M58.11 3.24v4.154a15.9 15.9 0 0 0-5.165 11.757c0 4.659 1.991 8.849 5.165 11.758v4.077h-5.165v-4.14a15.73 15.73 0 0 1-10.654 4.14c-8.736 0-15.818-7.107-15.818-15.873 0-8.767 7.082-15.874 15.818-15.874 4.104 0 7.843 1.568 10.654 4.14v-4.14zM42.29 8.421c-5.883 0-10.653 4.787-10.653 10.69 0 5.905 4.77 10.69 10.653 10.69s10.654-4.785 10.654-10.69c0-5.903-4.77-10.69-10.654-10.69M111.055 3.24l.001 4.138a15.73 15.73 0 0 1 10.653-4.139c8.736 0 15.818 7.107 15.818 15.874s-7.082 15.873-15.818 15.873a15.73 15.73 0 0 1-10.653-4.14l-.001 13.21h-5.165v-13.21a15.86 15.86 0 0 0 5.165-11.733c0-4.65-1.992-8.831-5.165-11.734v-4.14zm10.654 5.182c-5.884 0-10.654 4.787-10.654 10.69 0 5.905 4.77 10.69 10.654 10.69 5.883 0 10.653-4.785 10.653-10.69 0-5.903-4.77-10.69-10.653-10.69" opacity=".7"/><path d="M84.583 0v7.378l.218-.194a15.73 15.73 0 0 1 10.436-3.945c8.736 0 15.819 7.107 15.819 15.874s-7.083 15.873-15.82 15.873a15.73 15.73 0 0 1-10.653-4.14v4.21c0 4.044-1.611 7.843-4.44 10.734l-.209.21-3.616-3.709c1.922-1.894 3.027-4.352 3.096-6.972l.004-.262v-4.148a15.71 15.71 0 0 1-10.654 4.148c-8.736 0-15.819-7.121-15.819-15.906s7.083-15.905 15.82-15.905c4.103 0 7.842 1.571 10.653 4.148V0zM68.764 8.44c-5.884 0-10.653 4.796-10.653 10.711 0 5.916 4.77 10.712 10.653 10.712s10.654-4.796 10.654-10.712S74.648 8.44 68.764 8.44m26.473-.017c-5.884 0-10.654 4.786-10.654 10.69s4.77 10.69 10.654 10.69c5.883 0 10.653-4.786 10.653-10.69s-4.77-10.69-10.653-10.69"/></g><defs><clipPath id="a"><path fill="#fff" d="M0 0h164v46H0z"/></clipPath></defs></svg>
